X: 3305
T: Bell Table
R: waltz
M: 3/4
K: Dmajor
|:d3 e d2|d2 c2 B2|A3 B A2|A2 G2 F2|
G3 A B>G|A2 A>B A>F|G2 G>A B>G|A2 B2 c2|
d2 de d2|d2 (3cdc B2|A2 AB A2|(3ABA (3GAG (3FGF|
G2 GA B>G|A2 A>B A>F|G2 (3FGF E2|D3:|
|:a3 b a2|a2 ^g2 =g2|f3 g f2|f2 e2 f2|
g3 a g2|g2 f2 g2|a3 b a2|a2 f2 g2|
a2 a>b a2|a2 ^g2 =g2|f2 fg f2|f2 e2 d2|
B4 g2|f<a- a2 c2|e<d- d2 c2|d3:|

